packages/core/src/svgs/pyr.svg

<svg width="24" height="24" viewBox="0 0 24 24" fill="none" xmlns="http://www.w3.org/2000/svg">
<g clip-path="url(#clip0_31_16656)">
<path d="M0 0H24V24H0V0Z" fill="#F0F3FA"/>
<path fill-rule="evenodd" clip-rule="evenodd" d="M12.5446 2.57129C12.5631 2.94929 12.3089 4.07257 11.1445 5.543C10.8286 5.94286 10.4674 6.35557 10.0962 6.77986C8.75864 8.30986 7.28564 9.99415 7.28564 11.765C7.28564 13.5749 8.11879 14.771 8.53493 15.1426C8.59707 14.6836 9.00507 13.4557 10.1438 12.2189C10.4939 11.8383 11.0018 11.4204 11.5551 10.9644C13.2518 9.56815 15.3788 7.817 14.7248 5.70157C14.7248 6.24629 14.3112 7.55729 12.6569 8.441C11.0022 9.32472 9.9955 10.3996 9.69893 10.8269C9.66164 10.6207 9.80907 9.86943 10.3396 9.15243C10.3979 9.074 10.4644 8.98615 10.5381 8.88972C11.4179 7.73386 13.2629 5.30986 12.5446 2.57129ZM11.4556 21.4284C11.4372 21.0504 11.6914 19.9271 12.8558 18.4567C13.1716 18.0569 13.5329 17.6441 13.9041 17.2199C15.2412 15.6899 16.7142 14.0056 16.7142 12.2347C16.7142 10.4249 15.8811 9.22872 15.4649 8.85715C15.4028 9.31615 14.9948 10.544 13.8561 11.7809C13.5059 12.1614 12.9981 12.5793 12.4448 13.0353C10.7481 14.4316 8.62107 16.1827 9.27507 18.2981C9.27507 17.7534 9.68864 16.4424 11.3434 15.5587C12.9976 14.675 14.0048 13.6001 14.3009 13.1729C14.3382 13.379 14.1908 14.1303 13.6602 14.8473C13.6019 14.9257 13.5355 15.0136 13.4618 15.11C12.5819 16.2663 10.7374 18.6899 11.4556 21.4284Z" fill="url(#paint0_linear_31_16656)"/>
</g>
<defs>
<linearGradient id="paint0_linear_31_16656" x1="11.9999" y1="2.57129" x2="11.9999" y2="21.4284" gradientUnits="userSpaceOnUse">
<stop offset="0.352" stop-color="#FCCA08"/>
<stop offset="1" stop-color="#EE6233"/>
</linearGradient>
<clipPath id="clip0_31_16656">
<rect width="24" height="24" fill="white"/>
</clipPath>
</defs>
</svg>

<svg xmlns="http://www.w3.org/2000/svg" width="24" height="24" fill="none" viewBox="0 0 24 24"><g clip-path="url(#a)"><path fill="#F0F3FA" d="M0 0h24v24H0z"/><path fill="url(#b)" fill-rule="evenodd" d="M12.545 2.571c.018.378-.236 1.502-1.4 2.972-.316.4-.678.813-1.049 1.237-1.337 1.53-2.81 3.214-2.81 4.985 0 1.81.833 3.006 1.249 3.378.062-.46.47-1.687 1.609-2.924.35-.38.858-.799 1.411-1.255 1.697-1.396 3.824-3.147 3.17-5.262 0 .544-.414 1.855-2.068 2.739S9.996 10.4 9.699 10.827c-.037-.206.11-.958.64-1.675l.2-.262c.879-1.156 2.724-3.58 2.006-6.319m-1.09 18.857c-.018-.378.236-1.5 1.4-2.971.317-.4.678-.813 1.05-1.237 1.336-1.53 2.81-3.214 2.81-4.985 0-1.81-.834-3.006-1.25-3.378-.062.46-.47 1.687-1.609 2.924-.35.38-.858.798-1.411 1.254-1.697 1.397-3.824 3.148-3.17 5.263 0-.545.414-1.856 2.068-2.74 1.655-.883 2.662-1.958 2.958-2.385.037.206-.11.957-.64 1.674q-.089.119-.2.263c-.88 1.156-2.724 3.58-2.005 6.318" clip-rule="evenodd"/></g><defs><linearGradient id="b" x1="12" x2="12" y1="2.571" y2="21.428" gradientUnits="userSpaceOnUse"><stop offset=".352" stop-color="#FCCA08"/><stop offset="1" stop-color="#EE6233"/></linearGradient><clipPath id="a"><path fill="#fff" d="M0 0h24v24H0z"/></clipPath></defs></svg>
